X: 4
T: The Belharbour
R: reel
M: 4/4
L: 1/8
K: Gmaj
|: B |DGGD G2 (3Bcd | g2 dg egdB | A3 G A2 BA | GBAF GFEA |
DGGD G2 (3Bcd | g2 dg egdB | GA (3Bcd gedc | BGAF G3 :|
|: B |dggf gG (3ABc | g2 af gfed | eaag a3 g | ageg ed B2 |
dggf gG (3ABc | g2 af gedB | GA (3Bcd gedc | BGAF G3 :|


Tune 622	Setting 13641

